static/icons/github.svg

<svg width="36" height="35" viewBox="0 0 36 35" fill="none" xmlns="http://www.w3.org/2000/svg">
<g clip-path="url(#clip0)">
<path d="M33.2 8.90002C31.6436 6.19872 29.4013 3.95643 26.7 2.40002C23.9739 0.796989 20.8624 -0.0327427 17.7 1.83865e-05C14.6394 0.0209249 11.6385 0.848772 9.00005 2.40002C6.29875 3.95643 4.05646 6.19872 2.50005 8.90002C0.879459 11.587 0.0156369 14.6622 4.56074e-05 17.8C-0.0216123 21.5432 1.17141 25.1925 3.40005 28.2C5.57375 31.2193 8.65794 33.4623 12.2 34.6C12.3474 34.6553 12.5056 34.6751 12.662 34.6577C12.8184 34.6404 12.9685 34.5863 13.1 34.5C13.2885 34.3154 13.3963 34.0638 13.4 33.8V32.5V30.5H12.8C12.3742 30.6085 11.9388 30.6755 11.5 30.7C10.9621 30.6774 10.427 30.6105 9.90005 30.5C9.35246 30.3864 8.83889 30.1467 8.40005 29.8C7.93718 29.441 7.58955 28.9543 7.40005 28.4L7.10005 27.8C6.9088 27.4082 6.67398 27.0392 6.40005 26.7C6.15777 26.2866 5.81345 25.9423 5.40005 25.7H5.20005C5.08791 25.6129 4.98713 25.5122 4.90005 25.4C4.81977 25.3098 4.75245 25.2088 4.70005 25.1L4.80005 24.8C5.02208 24.7114 5.26208 24.6771 5.50005 24.7H6.00005C6.40072 24.8301 6.77372 25.0336 7.10005 25.3C7.55125 25.6134 7.92701 26.0233 8.20005 26.5C8.50047 27.1013 8.94757 27.6172 9.50005 28C9.93895 28.3126 10.4614 28.4868 11 28.5C11.4689 28.5165 11.9383 28.483 12.4 28.4C12.7479 28.3063 13.0835 28.172 13.4 28C13.4681 27.0943 13.8583 26.2428 14.5 25.6C13.7246 25.5236 12.9558 25.3899 12.2 25.2C11.4316 24.9943 10.6923 24.6919 10 24.3C9.23844 23.941 8.55794 23.4306 8.00005 22.8C7.51863 22.0338 7.17984 21.1869 7.00005 20.3C6.66549 19.1978 6.49698 18.0519 6.50005 16.9C6.46252 16.005 6.60222 15.1113 6.91112 14.2704C7.22002 13.4295 7.69204 12.6579 8.30005 12C7.71511 10.481 7.75102 8.79281 8.40005 7.30002C9.08161 7.18119 9.78334 7.28644 10.4 7.60002C11.0892 7.84726 11.7579 8.14818 12.4 8.50002L13.4 9.10002C16.2806 8.31326 19.3195 8.31326 22.2 9.10002L23.1 8.50002C23.7674 8.10214 24.4705 7.76736 25.2 7.50002C25.7947 7.22808 26.4618 7.15785 27.1 7.30002C27.7816 8.77958 27.8534 10.4679 27.3 12C28.5033 13.3039 29.1492 15.0265 29.1 16.8C29.1016 17.9518 28.9332 19.0975 28.6 20.2C28.3658 21.1032 27.9583 21.9523 27.4 22.7C26.8662 23.3146 26.2217 23.8234 25.5 24.2C24.8388 24.5834 24.1337 24.8856 23.4 25.1C22.6115 25.2948 21.8091 25.4286 21 25.5C21.432 25.9269 21.7637 26.4444 21.9712 27.0151C22.1787 27.5858 22.2569 28.1954 22.2 28.8V33.7C22.2038 33.9638 22.3116 34.2154 22.5 34.4C22.6316 34.4863 22.7817 34.5404 22.9381 34.5577C23.0945 34.5751 23.2527 34.5553 23.4 34.5C26.9421 33.3623 30.0263 31.1193 32.2 28.1C34.3931 25.0801 35.5507 21.4319 35.5 17.7C35.5631 14.547 34.7681 11.4362 33.2 8.70002V8.90002Z" fill="#A049BE"/>
</g>
<defs>
<clipPath id="clip0">
<rect width="35.5" height="34.7" fill="white"/>
</clipPath>
</defs>
</svg>

<svg xmlns="http://www.w3.org/2000/svg" viewBox="0 0 35.5 34.7"><path fill="#8900f2" d="M33.2 8.9a17.7 17.7 0 0 0-6.5-6.5 17.4 17.4 0 0 0-9-2.4A17.4 17.4 0 0 0 9 2.4a17.7 17.7 0 0 0-6.5 6.5A17.4 17.4 0 0 0 0 17.8a17.3 17.3 0 0 0 3.4 10.4 17.4 17.4 0 0 0 8.8 6.4 1 1 0 0 0 .9-.1 1 1 0 0 0 .3-.7v-1.3-2h-.6a6.8 6.8 0 0 1-1.3.2 9.8 9.8 0 0 1-1.6-.2 3.6 3.6 0 0 1-1.5-.7 3 3 0 0 1-1-1.4l-.3-.6a5.8 5.8 0 0 0-.7-1.1 2.8 2.8 0 0 0-1-1h-.2a1.7 1.7 0 0 1-.3-.3 1.3 1.3 0 0 1-.2-.3l.1-.3a1.5 1.5 0 0 1 .7-.1H6a3.4 3.4 0 0 1 1.1.6 3.7 3.7 0 0 1 1.1 1.2A4 4 0 0 0 9.5 28a2.7 2.7 0 0 0 1.5.5 6.6 6.6 0 0 0 1.4-.1 4.6 4.6 0 0 0 1-.4 3.8 3.8 0 0 1 1.1-2.4 15.8 15.8 0 0 1-2.3-.4 9.4 9.4 0 0 1-2.2-.9A6.2 6.2 0 0 1 8 22.8 7.5 7.5 0 0 1 7 20.3a11.6 11.6 0 0 1-.5-3.4A6.8 6.8 0 0 1 8.3 12a6.2 6.2 0 0 1 .1-4.7 3.2 3.2 0 0 1 2 .3 14 14 0 0 1 2 .9l1 .6a16.7 16.7 0 0 1 8.8 0l.9-.6a12.5 12.5 0 0 1 2.1-1 3 3 0 0 1 1.9-.2 6.2 6.2 0 0 1 .2 4.7 6.8 6.8 0 0 1 1.8 4.8 11.7 11.7 0 0 1-.5 3.4 7.2 7.2 0 0 1-1.2 2.5 6.5 6.5 0 0 1-1.9 1.5 9.5 9.5 0 0 1-2.1.9 15.8 15.8 0 0 1-2.4.4 4.1 4.1 0 0 1 1.2 3.3v4.9a1 1 0 0 0 .3.7 1 1 0 0 0 .9.1 17.4 17.4 0 0 0 8.8-6.4 17.3 17.3 0 0 0 3.3-10.4 17.4 17.4 0 0 0-2.3-9z" data-name="Path 291"/></svg>
